X:1321
T:Lazy River
C:Hoagy Carmichael and Sidney Arodin
S:Copyright 1931, Hoagy Carmichael and Sidney Arodin
M:4/4
L:1/8
Q:1/4=112
K:Bb
"G7"G>=Bd>_a g>f^F>G|=f2"Gb7"_f2"F7"e2>"B°7"d2|"C7"=E>GB>d c>B_E>=E|"C"A2"Db9"_A2"C9"G4|
"F7"A>gf>_f e2^F>G|"F6"d2"Gb7"_d2"F7"c2z2|"Bb"^c>dF>=E "F7"_E>=c"E°7"G>A|"Bb"B2DF-F2z2|
"G7"G>=Bd>_a g>f^F>G|=f2"Gb7"_f2"F7"e2>"B°7"d2|"C7"=E>GB>d c>B_E>=E|"C"A2"Db9"_A2"C9"G4|
"Eb"g>fe>d"E°7"_d4|"Bb"b>a"A7"g>_g"Ab6"f4"G7"y|"C9"=g>bg>d "F7"fd2F|
"Bb"B>B"A7"A>B "G7"=B4|"C9"g>bg>d"F7"fd2F|1"Bb"B4-"Eb6"y"Bb"Bzz2:|2"Bb6"B4-B2z2|]
